!!!COM: Beethoven
!!!OTL: Zehn Variationen uber "la stessa, la stessissima" aus "Falstaff" von A. Salieri
!!!Variation: Variation 8 a
**function	**harm	**kern	**kern
*	*	*clefG2	*clefG2
*	*	*k[b-e-]	*k[b-e-]
*M4/4	*M4/4	*M4/4	*M4/4
*B-:	*B-:	*B-:	*B-:
=129	=129	=129	=129
*	*	*	*^
1T	1I	1b- 1dd	1ff	(2bb-
.	.	.	.	4.ddd
.	.	.	.	8ccc)
=130	=130	=130	=130	=130
1T	1V7c	2.cc 2.ee-	2.ff	(4.bb-
.	.	.	.	8aa
.	.	.	.	4eee-')
.	.	4r	4r	4r
*	*	*clefF4	*	*
=131	=131	=131	=131	=131
1T	1V7	1F 1e-	1a	(2cc
.	.	.	.	4.ee-
.	.	.	.	8dd)
=132	=132	=132	=132	=132
1T	1I	2.B- 2.d	2.f	(4.cc
.	.	.	.	8b-
.	.	.	.	4ff')
.	.	4r	4r	4r
*	*	*	*v	*v
=133	=133	=133	=133
1T	1IV	1EE- [1BB-	(2G
.	.	.	4.B-
.	.	.	8G)
=134	=134	=134	=134
2T	2Ib	4DD 4BB-]	4F
.	.	(4D 4F	(4B- 4f
4T	4V7c	4C 4F	4A 4e-
4T	4I	4BB-) 4F	4B-) 4d
=135	=135	=135	=135
*	*	*^	*
1T	1V	1FF	(4.F	(4.A 4.c
.	.	.	8E)	8B-) 8d
.	.	.	(4.F	(4.A 4.c
.	.	.	8E)	8B-) 8d
*	*	*v	*v	*
=136	=136	=136	=136
1D	1V7	(8.FL	4A 4c
.	.	16GJk	.
.	.	8.E-L	4r
.	.	16FJk	.
.	.	8.DL	2r
.	.	16E-Jk	.
.	.	8.CL	.
.	.	16DJk)	.
*-	*-	*-	*-
